X: 20881
T: HUNGARIAN WALTZ
Q: "Moderato"
R: waltz
B: "Edinburgh Repository of Music" v.2 p.88 #1
F: http://digital.nls.uk/special-collections-of-printed-music/pageturner.cfm?id=87776133
Z: 2015 John Chambers <jc:trillian.mit.edu>
M: 3/8
L: 1/16
K: C
g2 !segno!|\
c'>g e3c | Bd f3f | af d2B2 | g3feg |\
c'g e3c | Bd f3f | (af) (fd) (dB) | "_Fine."c4 :|
g2 |\
(^fa) d3f | (gb) d3g | a2abc'a | c'bag^fg |\
^fa d3f | gb d3g | ^fgabc'a | gag=feg !segno!|]">D.C."y

%%sep 2 1 500
%%sep 1 1 500

